X: 21471
T: Kevin Miller's
R: jig
M: 6/8
K: Gmajor
|:BBB BGB|gfe dBG|egf edc|e2e gfd|
ded dBG|AGA BAG|AGA BAG|E3 Gca:|
|:ded dBd|gfe dcB|Ggg Aaa|B2B cBG|
Ggg Aaa|gfe dcB|gfg agf|g3 g3:|

